X: 305786
M: 2/4
L: 1/16
K: G
d2 |\
dcBc d2d2 | e4 d2g2 | gfed ^cdef | gfga b2d2 |\
dcBc d2d2 | e4 d2g2 | gfed ^cdef | g4 g2 H|]\
g2 | G2g2 G2g2 | GABc d2g2 |
f8 | gfga b2g2 |\
e4 g2B2 | e4 g2B2 | e2g2e2g2 | f2b2 B2b2 |\
e4 g2B2 | e4 g2B2 | f2b2 f2b2 | e4 "^D.C."z2 |]


